modules/hawcons-filled/icons/icon-84-document-file-tiff.svg

<?xml version="1.0" encoding="UTF-8" standalone="no"?>
<svg width="32px" height="32px" viewBox="0 0 32 32" version="1.1" xmlns="http://www.w3.org/2000/svg" xmlns:xlink="http://www.w3.org/1999/xlink" xmlns:sketch="http://www.bohemiancoding.com/sketch/ns">
    <!-- Generator: Sketch 3.0.3 (7891) - http://www.bohemiancoding.com/sketch -->
    <title>icon 84 document file tiff</title>
    <desc>Created with Sketch.</desc>
    <defs></defs>
    <g id="Page-1" stroke="none" stroke-width="1" fill="none" fill-rule="evenodd" sketch:type="MSPage">
        <g id="icon-84-document-file-tiff" sketch:type="MSArtboardGroup" fill="#929292">
            <path d="M19,26 L19,28.0025781 C19,29.1090746 18.1057238,30 17.0025781,30 L1.99742191,30 C0.890925393,30 0,29.1012878 0,27.9926701 L0,5.00732994 C0,3.89833832 0.899249601,3 2.0085302,3 L12,3 L12,9.00189865 C12,10.1132936 12.8980806,11 14.0059191,11 L19,11 L19,13 L8.00684834,13 C6.34621185,13 5,14.3422643 5,15.9987856 L5,23.0012144 C5,24.6573979 6.33599155,26 8.00684834,26 L19,26 L19,26 Z M13,3 L13,8.99707067 C13,9.55097324 13.4509752,10 13.990778,10 L19,10 L13,3 L13,3 Z M8.00359486,14 C6.89703997,14 6,14.9001762 6,15.992017 L6,23.007983 C6,24.1081436 6.88976324,25 8.00359486,25 L28.9964051,25 C30.10296,25 31,24.0998238 31,23.007983 L31,15.992017 C31,14.8918564 30.1102368,14 28.9964051,14 L8.00359486,14 L8.00359486,14 Z M10,17 L10,23 L11,23 L11,17 L13,17 L13,16 L8,16 L8,17 L10,17 L10,17 Z M15,17 L15,22 L14,22 L14,23 L17,23 L17,22 L16,22 L16,17 L17,17 L17,16 L14,16 L14,17 L15,17 L15,17 Z M19,19 L19,17 L23,17 L23,16 L18,16 L18,23 L19,23 L19,20 L22,20 L22,19 L19,19 L19,19 Z M25,19 L25,17 L29,17 L29,16 L24,16 L24,23 L25,23 L25,20 L28,20 L28,19 L25,19 L25,19 Z" id="document-file-tiff" sketch:type="MSShapeGroup"></path>
        </g>
    </g>
</svg>

<svg width="32" height="32" viewBox="0 0 32 32" xmlns="http://www.w3.org/2000/svg"><path d="M19 26v2.003A1.995 1.995 0 0 1 17.003 30H1.997A2 2 0 0 1 0 27.993V5.007C0 3.898.9 3 2.009 3H12v6.002c0 1.111.898 1.998 2.006 1.998H19v2H8.007A3.003 3.003 0 0 0 5 15.999V23A2.996 2.996 0 0 0 8.007 26H19zM13 3v5.997c0 .554.451 1.003.99 1.003H19l-6-7zM8.004 14C6.897 14 6 14.9 6 15.992v7.016C6 24.108 6.89 25 8.004 25h20.992C30.103 25 31 24.1 31 23.008v-7.016c0-1.1-.89-1.992-2.004-1.992H8.004zM10 17v6h1v-6h2v-1H8v1h2zm5 0v5h-1v1h3v-1h-1v-5h1v-1h-3v1h1zm4 2v-2h4v-1h-5v7h1v-3h3v-1h-3zm6 0v-2h4v-1h-5v7h1v-3h3v-1h-3z" fill="#929292" fill-rule="evenodd"/></svg>
